!!!COM: Haydn, Franz Joseph
!!!OPR: String Quartet in B-flat Major
!!!ONM: Opus 50, No. 1
!!!OTL: Affettuoso 
!!!OMV: 3
!!!SCT: H III:44
!!!SCA: Thematisch-bibliographisches Werkevererzeichnis (A. van Hoboken)
!!!YOR: Richault Edition, volume 6
!!!EED: Frances Bennion
!!!ENC: Frances Bennion
!!!CDT: 1732/3/31/-1809/5/31/
!!!OCY: Österreich
!!!YEC: Copyright (c) 1994, 2000 Center for Computer Assisted Research in the Humanities
!!!YEM: Rights to all derivative editions reserved.
!!!YEM: Refer to licensing agreement for further details.
!!!YEN: United States of America
**kern	**kern	**kern	**kern
*k[b-e-]	*k[b-e-]	*k[b-e-]	*k[b-e-]
*B-:	*B-:	*B-:	*B-:
*clefF	*clefF	*clefC3	*clefF4
*M3/4	*M3/4	*M3/4	*M3/4
*tb16	*tb16	*tb16	*tb16
=0-	=0-	=0-	=0-
4r	2r	2r	2r
4r	.	.	.
4f	4r	4r	4r
=1	=1	=1	=1
4b-	4r	4r	4r
4b-	4r	4r	4r
4dd	4f	4f	4B-
=2	=2	=2	=2
4a	4c	2f	4e-
4b-	4d	.	4d
4f	4r	4r	4r
=3	=3	=3	=3
4dd	4b-	4r	4r
4dd	4b-	4r	4r
4gg	4dd	4B-	[4B-
=4	=4	=4	=4
4ee	4g	2c	4B-]
4ff	4a	.	4A
4ee-	[4b-	4r	[4g
=5	=5	=5	=5
4cc#	4b-]	2.r	4g]
4dd	4a	.	4f#
8b	4a-	.	4f
16a	.	.	.
16b	.	.	.
=6	=6	=6	=6
4cc	4g	2.r	4e
8a	4g-	.	4e-
16g	.	.	.
16a	.	.	.
4b-	4f	.	4d
=7	=7	=7	=7
4a	4e-	4f	4c
4ee-	4cc	4f	4A
8dd	4b-	4f	8B-
8b-	.	.	8d
=8	=8	=8	=8
4f	4a	4f	4f
2r	2r	2r	4r
.	.	.	4F
=9	=9	=9	=9
4r	4r	4r	4B-
4r	4r	4r	4B-
4b-	4f	4f	4d
=10	=10	=10	=10
4ee-	4cc	2f	4A
4dd	4b-	.	4B-
4r	4r	4r	4F
=11	=11	=11	=11
4r	4r	4r	4d
4r	4r	4r	4d
[4b-	4dd	4b-	4g
=12	=12	=12	=12
4b-]	2cc	4g	4e
4a	.	4f	4f
[4gg	4g	4r	4e-
=13	=13	=13	=13
4gg]	4b-	2.r	4c#
4ff#	4a	.	4d
4ff	4a-	.	8B
.	.	.	16A
.	.	.	16B
=14	=14	=14	=14
4ee	4g	2.r	4c
4ee-	4g-	.	8A
.	.	.	16G
.	.	.	16A
4dd	4f	.	4B-
=15	=15	=15	=15
4cc	4f	4r	4A
4a	4c	4f	4e-
8b-	4B-	4f	8d
8dd	.	.	8B-
=16	=16	=16	=16
4ff	4A	4f	4F
4r	4r	4r	4r
4f	4r	4r	4r
=17	=17	=17	=17
4ff	4a	4f	2.r
4ff	4a	4r	.
4aa	4cc	4f	.
=18	=18	=18	=18
4ee	4dd-	4b-	2.r
4ff	4cc	4a	.
4f	4r	4r	.
=19	=19	=19	=19
4ee-	4cc	4r	4r
4ee-	4cc	4r	4r
4gg	4ee-	4e-	4c
=20	=20	=20	=20
4dd	4b	4a-	4f
4ee-	4cc	4g	4e-
4gg	4ee-	4r	4r
=21	=21	=21	=21
4cc	4a	2f	4e-
4dd	4b-	.	4d
4ff	4dd	[4dd	4BB-
=22	=22	=22	=22
4ff	2b-	4dd]	4G
4ee-	.	4g	4G
4dd	4f	[4b-	4B-
=23	=23	=23	=23
4dd	2g	4b-]	4E-
4cc	.	4e-	4E-
[4b-	4e	4c	4G
=24	=24	=24	=24
4b-]	4f	4c	2F
4a	4r	8f	.
.	.	8e-	.
4r	4f	8d	4r
.	.	8c	.
=25	=25	=25	=25
2.r	4b-	2d	8B-
.	.	.	8A
.	4b-	.	8G
.	.	.	8F
.	4dd	4f	8E-
.	.	.	8D
=26	=26	=26	=26
2.r	4a	4e-	4C
.	4b-	4d	4BB-
.	4f	4r	4r
=27	=27	=27	=27
[2.b-	4dd	8b-	2.r
.	.	8a	.
.	4dd	8g	.
.	.	8f	.
.	4gg	8e	.
.	.	8d	.
=28	=28	=28	=28
4b-]	4ee	4c	4r
4a	4ff	4f	4r
[4bb-	4ee-	[4g	4G
=29	=29	=29	=29
4bb-]	4cc#	4g]	4A
4aa	4dd	4f#	4D
4aa-	8b	4f	4G
.	16a	.	.
.	16b	.	.
=30	=30	=30	=30
4gg	4cc	4e	4C
4gg-	8a	4e-	4F
.	16g	.	.
.	16a	.	.
4ff	4b-	4d	4BB-
=31	=31	=31	=31
4ee-	4cc	4g	4E-
4dd	4b-	4f	4F
4cc	4a	4e-	4FF
=32	=32	=32	=32
4b-	4b-	4d	4BB-
4r	2r	2r	2r
4f	.	.	.
=33	=33	=33	=33
4b-	2.f	2.d	[2.BB-
4b-	.	.	.
4dd	.	.	.
=34	=34	=34	=34
4a	4g	4e-	2BB-]
4b-	4f	4d	.
4ff	4r	4r	4r
=35	=35	=35	=35
4cc	4f	2e- 2A	2.F
4ee-	8g-	.	.
.	8g	.	.
4cc	8a-	4e-	.
.	8a	.	.
=36	=36	=36	=36
4b-	4b-	4d	4BB-
4r	4r	4r	4r
8fff	4r	4r	4r
8r	.	.	.
=37	=37	=37	=37
8ddd	2.r	2.r	2.r
8r	.	.	.
8bb-	.	.	.
8r	.	.	.
8ff	.	.	.
8r	.	.	.
=38	=38	=38	=38
8dd	4r	4r	4r
8r	.	.	.
8b-	4r	4r	4r
8r	.	.	.
8b	4a-	4f	4d
8r	.	.	.
=39	=39	=39	=39
4cc	4g	4e-	4e-
4cc	4g	4g	4e-
4cc	4g	4e-	4e-
=40	=40	=40	=40
4cc	4g	4c	4e-
4r	2r	2r	2r
8eee-	.	.	.
8r	.	.	.
=41	=41	=41	=41
8ccc	2.r	2.r	2.r
8r	.	.	.
8aa	.	.	.
8r	.	.	.
8ff	.	.	.
8r	.	.	.
=42	=42	=42	=42
8ee-	4r	4r	4r
8r	.	.	.
8cc	4r	4r	4r
8r	.	.	.
4a	4e-	4c	4F
=43	=43	=43	=43
4b-	4d	4B-	4BB-
4b-	4d	4B-	4D
4b-	4d	4B-	4F
=44	=44	=44	=44
4b-	4d	4B-	4BB-
4r	4r	4r	4r
4r	4a	4f#	4r
=45	=45	=45	=45
4r	4b-	4g	2.r
4dd	4b-	4g	.
4ee-	4b-	4g	.
=46	=46	=46	=46
4ee-	4b-	4g	2.r
4ee-	4r	4r	.
4ee-	4b	4g	.
=47	=47	=47	=47
4r	4cc	4a-	2.r
4ee	4cc	4a-	.
4ff	4cc	4a-	.
=48	=48	=48	=48
4ff	4cc	4a-	4r
4ff	2r	4r	4r
4ff	.	4c#	4A
=49	=49	=49	=49
2.r	4r	4d	4B-
.	4ff#	4d	4B-
.	4gg	4d	4B-
=50	=50	=50	=50
4r	4gg	4d	4B-
4gg	4gg	4d	4B
4aa-	4gg	4e-	4c
=51	=51	=51	=51
4aa-	4gg	4e-	4c
4aa-	4ff	[2b-	4d
4gg	4ee-	.	4e-
=52	=52	=52	=52
4gg	4ee-	4b-]	4e-
4bb-	4gg	4dd-	4e
4aa	4ff	4cc	4f
=53	=53	=53	=53
4aa	4ff	4cc	4f
4ee	4dd-	4b-	2f
4ff	4cc	4a	.
=54	=54	=54	=54
4ff	4cc	4a	4f
4ee	4dd-	4b-	2f
4ff	4cc	4a	.
=55	=55	=55	=55
4ff	4cc	4a	4f
4ff	4cc	4a	4f
4ff	4cc	4a	4f
=56	=56	=56	=56
4ff	4cc	4a	4f
4.r	4r	2r	2r
.	8ff	.	.
8fff	8r	.	.
=57	=57	=57	=57
8r	8dd	2.r	2.r
8ddd	8r	.	.
8r	8b-	.	.
8bb-	8r	.	.
8r	8f	.	.
8ff	8r	.	.
=58	=58	=58	=58
8r	8d	4r	4r
8dd	8r	.	.
8r	8B-	4r	4r
8b-	8r	.	.
8r	8c	4f#	4DD
8a	8r	.	.
=59	=59	=59	=59
4g	4B-	4g	8EE-
.	.	.	8GG
4g	4B-	4e-	8BB-
.	.	.	8E-
4g	4B-	4e-	8BB-
.	.	.	8GG
=60	=60	=60	=60
4g	4B-	4e-	4EE-
4.r	4r	2r	2r
.	8ee-	.	.
8eee-	8r	.	.
=61	=61	=61	=61
8r	8cc	2.r	2.r
8ccc	8r	.	.
8r	8a	.	.
8aa	8r	.	.
8r	8f	.	.
8ff	8r	.	.
=62	=62	=62	=62
8r	8e-	2r	4r
8ee-	8r	.	.
8r	8c	.	4r
8cc	8r	.	.
8r	8A	4e-	4F
8a	8r	.	.
=63	=63	=63	=63
4b-	4B-	4d	8BB-
.	.	.	8D
4b-	4d	4B-	8F
.	.	.	8B-
4b-	4d	4B-	8F
.	.	.	8D
=64	=64	=64	=64
4b-	4d	4B-	4BB-
2r	2r	2r	2r
==	==	==	==
*-	*-	*-	*-
!!!RWG1: This file contains only pitch and duration data.
!!!RWG2: Transposing instruments are not transposed.
!!!RWG3: Spines may have incompatible meters.
!!!RWG4: Durations of rests and tied notes may be interpreted.
!!!RWG: Key is interpreted using the Humdrum key tool.
!!!GTL: 6 Quartetti ("Prussian")
!!!AFT: stage1
!!!END: 1997/04/15
!!format changes:
!!content changes:
!!public access: complete
!!!KEY: 3316479678
!!!EMD: Converted from MuseData to Humdrum Dec 16, 2000, by Andreas Kornstaedt using muse2kern.
